X: 158
T:Scottish 1900
O:France
C:Trad.
R:Scottish
M:2/4
L:1/8
Q:1/4=85
P:A B C A B B
K:Bbmaj
V:1
"Bb"FG/2A/2 "Bb7"Bc | "Gm"df/2d/2 "Cm"c2 | "F"e/2G/2e/2G/2 "F7"e2 | "Bb"d/2F/2d/2F/2 "F7"cF/2F/2 | "Bb"FG/2A/2 "Bb7"Bc | "Gm"df/2d/2 "Cm"c2 | "F"fd/2B/2 "F7"AF/2A/2 | "Bb"BB B2 ::
"Bb"dB "Bbdim"F/2G/2F/2G/2 | "F7"FD/2F/2 "Bb"B2 | "Cm"ee/2c/2 "Gm"dd/2B/2 | "F7"c/2d/2c/2B/2 "F7"GF | "Bb"dB "Bbdim"F/2G/2F/2G/2 | "F7"FD/2F/2 "Bb"B2 | "Cm"ec/2A/2 "F7"FG/2A/2 | "Bb"BB B2"AbIN" :|
K:Ebmaj
"Eb"Be GB | "Cm"E/2G/2B/2G/2 e2 | "F7"d/2c/2F/2G/2 "Bb7"A2 | c/2B/2E/2F/2 "Eb"G2 | "Eb"Be "Bb7"GB | "Ab"cc/2=B/2 "Ebdim"c2 | "Bb"B/2e/2d/2c/2 "Bb7"B/2A/2G/2F/2 | "Eb"EG E2 |]
<end>
<start>
